static/assets/images/exchanges/cetus.svg

<svg width="228" height="256" viewBox="0 0 228 256" fill="none" xmlns="http://www.w3.org/2000/svg">
<path fill-rule="evenodd" clip-rule="evenodd" d="M24.5136 247.543C23.2287 251.054 25.2564 254.986 28.9673 255.44C31.989 255.81 35.0662 256 38.188 256C62.0507 256 83.3119 244.878 97.0563 227.541C102.594 228.37 108.262 228.8 114.03 228.8C172.981 228.8 221.483 183.921 227.444 126.361C227.908 121.874 224.271 118.125 219.759 118.114L182.703 118.029C169.1 166.845 124.257 202.667 71.035 202.667C58.5095 202.667 46.4481 200.683 35.1488 197.012L35.1664 197.029C35.1664 197.029 34.3265 220.729 24.5136 247.543ZM201.925 41.5146C189.699 26.6925 173.821 15.0141 155.672 7.86841C165.801 18.6758 173.879 31.4245 179.284 45.495C182.794 54.6318 187.401 70.6255 187.401 70.6255C192.709 82.9698 198.326 90.3393 216.075 92.9482C221.206 93.7024 225.262 88.953 223.828 83.9689C219.351 68.4063 211.688 53.352 201.925 41.5146Z" fill="#2CD4A6"/>
<path d="M112.695 117.867C87.9167 117.867 67.8304 97.809 67.8304 73.0667C67.8304 48.3243 87.9167 28.2667 112.695 28.2667C124.743 28.2667 135.683 33.0096 143.743 40.7278C152.258 48.8816 157.559 60.356 157.559 73.0667C157.559 78.2496 156.677 83.2269 155.056 87.8574C154.243 90.1802 155.632 92.8 158.093 92.8V92.8C171.077 92.8 184.264 84.925 187.401 70.6255C187.401 70.6255 182.794 54.6318 179.284 45.495C173.879 31.4245 165.801 18.6758 155.672 7.86841C142.772 2.78908 128.726 0 114.03 0C51.0529 0 0 51.2186 0 114.4C0 115.114 0.00651773 115.826 0.019494 116.537C0.59687 148.159 13.9634 176.646 35.1488 197.012C46.4481 200.683 58.5095 202.667 71.035 202.667C124.257 202.667 169.1 166.845 182.703 118.029L112.695 117.867Z" fill="#04EDBF"/>
</svg>

<svg xmlns="http://www.w3.org/2000/svg" fill="none" viewBox="0 0 228 256"><path fill="#2CD4A6" fill-rule="evenodd" d="M24.514 247.543c-1.285 3.511.742 7.443 4.453 7.897 3.022.37 6.1.56 9.221.56 23.863 0 45.124-11.122 58.868-28.459a114.6 114.6 0 0 0 16.974 1.259c58.951 0 107.453-44.879 113.414-102.439.464-4.487-3.173-8.236-7.685-8.247l-37.056-.085c-13.603 48.816-58.446 84.638-111.668 84.638-12.525 0-24.587-1.984-35.886-5.655l.017.017s-.84 23.7-10.652 50.514M201.925 41.515c-12.226-14.823-28.104-26.5-46.253-33.647a115.8 115.8 0 0 1 23.612 37.627c3.51 9.137 8.117 25.13 8.117 25.13 5.308 12.345 10.925 19.714 28.674 22.323 5.131.754 9.187-3.995 7.753-8.98-4.477-15.562-12.14-30.616-21.903-42.453" clip-rule="evenodd"/><path fill="#04EDBF" d="M112.695 117.867c-24.778 0-44.865-20.058-44.865-44.8 0-24.743 20.087-44.8 44.865-44.8 12.048 0 22.988 4.743 31.048 12.46 8.515 8.155 13.816 19.629 13.816 32.34 0 5.183-.882 10.16-2.503 14.79-.813 2.323.576 4.943 3.037 4.943 12.984 0 26.171-7.875 29.308-22.174 0 0-4.607-15.994-8.117-25.131a115.8 115.8 0 0 0-23.612-37.627C142.772 2.79 128.726 0 114.03 0 51.053 0 0 51.219 0 114.4q0 1.07.02 2.137c.577 31.622 13.943 60.109 35.129 80.475 11.3 3.671 23.36 5.655 35.886 5.655 53.222 0 98.065-35.822 111.668-84.638z"/></svg>
